build/images/content/footer/skolkovo.svg

<svg width="169" height="48" viewBox="0 0 169 48" fill="none" xmlns="http://www.w3.org/2000/svg">
<path d="M67.8399 22.9535C67.7165 22.7321 67.5441 22.5107 67.3736 22.2893C67.1777 22.0933 66.9564 21.8955 66.6607 21.7232C66.3904 21.5508 66.0457 21.4292 65.6538 21.3058C65.2601 21.2078 64.8175 21.1588 64.2769 21.1588C64.0556 21.1588 63.7852 21.1842 63.4914 21.2332C63.1956 21.3076 62.8764 21.4056 62.5571 21.5526C62.2378 21.725 61.9185 21.9464 61.5992 22.2167C61.3035 22.4871 61.0096 22.8555 60.7883 23.2982C60.518 23.7646 60.322 24.3053 60.1733 24.9459C60.0263 25.5846 59.952 26.3468 59.952 27.2323C59.952 28.1904 60.0499 29.0269 60.2477 29.7891C60.4436 30.5512 60.7393 31.1899 61.1076 31.7071C61.4758 32.2224 61.9439 32.6162 62.4845 32.8866C62.9997 33.157 63.6147 33.3039 64.2787 33.3039C65.0642 33.3039 65.6792 33.1806 66.1708 32.9592C66.6625 32.7142 67.0561 32.4184 67.35 32.0736C67.6457 31.7289 67.8652 31.3605 67.9886 30.9921C68.1356 30.6238 68.2589 30.279 68.3333 30.0086H71.9942C71.7983 31.1155 71.479 32.0736 71.011 32.8848C70.5447 33.6959 69.9787 34.36 69.3147 34.9008C68.6508 35.4415 67.9142 35.8353 67.0779 36.1057C66.2416 36.3761 65.3581 36.4995 64.4238 36.4995C63.1213 36.4995 61.9421 36.2781 60.9352 35.8353C59.9284 35.418 59.0685 34.7792 58.3791 33.9917C57.6915 33.1806 57.1745 32.197 56.8062 31.043C56.438 29.9125 56.2656 28.635 56.2656 27.2323C56.2656 26.1508 56.3636 25.1673 56.5849 24.2836C56.7808 23.398 57.0765 22.6123 57.4448 21.9246C57.8131 21.2368 58.2557 20.6707 58.771 20.1553C59.2626 19.6636 59.8032 19.2462 60.4182 18.9269C61.0078 18.6075 61.6228 18.3607 62.2849 18.1901C62.9489 18.0431 63.6111 17.9688 64.2751 17.9688C65.2329 17.9688 66.0928 18.0667 66.8312 18.2645C67.5677 18.4859 68.2317 18.7309 68.7977 19.0757C69.3637 19.4204 69.83 19.7888 70.2236 20.2316C70.6173 20.6743 70.9602 21.1171 71.2069 21.5598C71.4518 22.0262 71.6242 22.4944 71.7729 22.9371C71.8963 23.4035 71.9688 23.8227 71.9942 24.2146H68.3079L68.1356 23.6249C68.0612 23.4035 67.9632 23.2075 67.8399 22.9607V22.9535Z" fill="#EFF8FF"/>
<path d="M81.8069 22.9766H86.3278L80.9216 28.4095L86.5491 36.0544H82.1262L78.293 30.5235L76.916 31.9244V36.0544H73.5254V22.9784H76.916V27.9431L81.8069 22.9784V22.9766Z" fill="#EFF8FF"/>
<path d="M86.3881 26.7386C86.6838 25.8785 87.1247 25.1417 87.7142 24.5266C88.3038 23.9114 88.9914 23.4451 89.8277 23.1003C90.664 22.7555 91.5729 22.585 92.6052 22.585C93.6374 22.585 94.5953 22.7573 95.4316 23.1003C96.2679 23.4451 96.9555 23.9114 97.5197 24.5266C98.0857 25.1417 98.5265 25.8785 98.8458 26.7386C99.1415 27.5751 99.2885 28.5078 99.2885 29.5167C99.2885 30.5257 99.1415 31.4584 98.8458 32.2949C98.5265 33.155 98.0839 33.8917 97.5197 34.5069C96.9537 35.0966 96.2661 35.5884 95.4316 35.9332C94.5953 36.2779 93.6628 36.4485 92.6052 36.4485C91.5475 36.4485 90.664 36.2761 89.8277 35.9332C88.9914 35.5884 88.3038 35.0966 87.7142 34.5069C87.1247 33.8917 86.682 33.155 86.3881 32.2949C86.0924 31.4584 85.9219 30.5257 85.9219 29.5167C85.9219 28.5078 86.0942 27.5751 86.3881 26.7386ZM89.6318 30.9666C89.7298 31.4584 89.9021 31.9011 90.1724 32.2695C90.4173 32.6633 90.7384 32.9826 91.1303 33.204C91.5239 33.4254 92.0156 33.5488 92.6052 33.5488C93.1948 33.5488 93.7354 33.4254 94.129 33.204C94.5227 32.9826 94.842 32.6633 95.0869 32.2949C95.3318 31.9265 95.5042 31.5092 95.6021 31.0174C95.7001 30.5257 95.7491 30.0339 95.7491 29.5186C95.7491 29.0032 95.7001 28.5114 95.6021 28.0197C95.5042 27.5279 95.3318 27.0852 95.0869 26.7168C94.842 26.3484 94.5209 26.0527 94.129 25.8077C93.7354 25.5863 93.2202 25.4883 92.6052 25.4883C91.9902 25.4883 91.5239 25.6117 91.1303 25.8331C90.7366 26.0545 90.4173 26.3738 90.1724 26.7422C89.9021 27.136 89.7298 27.5533 89.6318 28.0451C89.5338 28.5369 89.4595 29.0286 89.4595 29.5204C89.4595 30.0121 89.5338 30.5039 89.6318 30.9702V30.9666Z" fill="#EFF8FF"/>
<path d="M105.679 25.7302L105.63 28.1635C105.581 29.5408 105.483 30.7439 105.36 31.7764C105.213 32.8089 104.992 33.669 104.696 34.3568C104.377 35.0445 103.959 35.5617 103.442 35.93C102.927 36.2748 102.238 36.4454 101.427 36.4454C101.033 36.4454 100.714 36.42 100.42 36.3964C100.124 36.3474 99.9048 36.273 99.707 36.2004V33.3497C99.8304 33.3987 99.9773 33.4477 100.15 33.4966C100.322 33.5221 100.518 33.5456 100.765 33.5456C101.035 33.5456 101.256 33.4712 101.452 33.3007C101.648 33.1537 101.821 32.8833 101.967 32.4641C102.114 32.0468 102.212 31.4806 102.312 30.7439C102.387 30.0072 102.436 29.0726 102.459 27.9167L102.557 22.9756H113.075V36.0516H109.708V25.7283H105.677L105.679 25.7302Z" fill="#EFF8FF"/>
<path d="M123.832 22.9766H128.353L122.947 28.4095L128.574 36.0544H124.152L120.318 30.5235L118.941 31.9244V36.0544H115.551V22.9784H118.941V27.9431L123.832 22.9784V22.9766Z" fill="#EFF8FF"/>
<path d="M128.412 26.7386C128.707 25.8785 129.148 25.1417 129.738 24.5266C130.327 23.9114 131.015 23.4451 131.851 23.1003C132.687 22.7555 133.596 22.585 134.629 22.585C135.661 22.585 136.619 22.7573 137.455 23.1003C138.291 23.4451 138.979 23.9114 139.543 24.5266C140.109 25.1417 140.55 25.8785 140.871 26.7386C141.165 27.5751 141.314 28.5078 141.314 29.5167C141.314 30.5257 141.167 31.4584 140.871 32.2949C140.552 33.155 140.109 33.8917 139.543 34.5069C138.977 35.0966 138.29 35.5884 137.455 35.9332C136.619 36.2779 135.686 36.4485 134.629 36.4485C133.571 36.4485 132.687 36.2761 131.851 35.9332C131.015 35.5884 130.327 35.0966 129.738 34.5069C129.148 33.8917 128.705 33.155 128.412 32.2949C128.116 31.4584 127.945 30.5257 127.945 29.5167C127.945 28.5078 128.118 27.5751 128.412 26.7386ZM131.655 30.9666C131.753 31.4584 131.926 31.9011 132.196 32.2695C132.441 32.6633 132.762 32.9826 133.154 33.204C133.547 33.4254 134.039 33.5488 134.629 33.5488C135.218 33.5488 135.759 33.4254 136.152 33.204C136.546 32.9826 136.865 32.6633 137.11 32.2949C137.355 31.9265 137.528 31.5092 137.626 31.0174C137.724 30.5257 137.773 30.0339 137.773 29.5186C137.773 29.0032 137.724 28.5114 137.626 28.0197C137.528 27.5279 137.355 27.0852 137.11 26.7168C136.865 26.3484 136.544 26.0527 136.152 25.8077C135.759 25.5863 135.244 25.4883 134.629 25.4883C134.014 25.4883 133.547 25.6117 133.154 25.8331C132.76 26.0545 132.441 26.3738 132.196 26.7422C131.926 27.136 131.753 27.5533 131.655 28.0451C131.557 28.5369 131.483 29.0286 131.483 29.5204C131.483 30.0121 131.557 30.5039 131.655 30.9702V30.9666Z" fill="#EFF8FF"/>
<path d="M151.405 23.1244C151.946 23.2478 152.437 23.4202 152.88 23.6651C153.297 23.9355 153.642 24.2803 153.887 24.7212C154.132 25.164 154.255 25.7283 154.255 26.4179C154.255 26.8117 154.23 27.1546 154.132 27.425C154.057 27.7208 153.936 27.9657 153.787 28.1617C153.64 28.3831 153.468 28.5555 153.295 28.6771C153.099 28.824 152.927 28.9474 152.706 29.0454C153.37 29.2668 153.861 29.6352 154.204 30.1523C154.549 30.6677 154.719 31.2592 154.719 31.9706C154.719 32.5857 154.621 33.1501 154.424 33.6418C154.202 34.1336 153.908 34.5763 153.515 34.9193C153.121 35.2877 152.655 35.558 152.089 35.7558C151.523 35.9518 150.91 36.0516 150.222 36.0516H142.898V22.9756H149.656C150.271 22.9756 150.835 23.0246 151.401 23.1226L151.405 23.1244ZM149.881 28.0166C150.126 27.9422 150.324 27.8696 150.471 27.7462C150.618 27.6482 150.741 27.5012 150.79 27.3288C150.864 27.1564 150.888 26.935 150.888 26.7137C150.888 26.5177 150.863 26.3453 150.79 26.1729C150.741 26.0259 150.618 25.8771 150.471 25.7556C150.347 25.6576 150.151 25.5596 149.905 25.4852C149.66 25.4108 149.364 25.3872 148.996 25.3872H146.293V28.1164H148.898C149.291 28.1164 149.611 28.0674 149.881 28.0184V28.0166ZM150.102 33.4985C150.398 33.3751 150.618 33.2535 150.79 33.0811C150.937 32.9341 151.06 32.7617 151.109 32.5658C151.158 32.3698 151.184 32.1974 151.184 32.025C151.184 31.7056 151.158 31.4353 151.06 31.2139C150.986 31.0179 150.864 30.8455 150.667 30.7221C150.494 30.5751 150.249 30.5007 149.954 30.4517C149.658 30.4028 149.315 30.3773 148.898 30.3773H146.293V33.6473H148.898C149.389 33.6473 149.807 33.5983 150.102 33.5003V33.4985Z" fill="#EFF8FF"/>
<path d="M156.097 26.7386C156.393 25.8785 156.834 25.1417 157.423 24.5266C158.013 23.9114 158.701 23.4451 159.537 23.1003C160.373 22.7555 161.282 22.585 162.314 22.585C163.347 22.585 164.304 22.7573 165.141 23.1003C165.977 23.4451 166.665 23.9114 167.229 24.5266C167.795 25.1417 168.236 25.8785 168.557 26.7386C168.851 27.5751 168.999 28.5078 168.999 29.5167C168.999 30.5257 168.852 31.4584 168.557 32.2949C168.237 33.155 167.795 33.8917 167.231 34.5069C166.665 35.0966 165.977 35.5884 165.143 35.9332C164.306 36.2779 163.374 36.4485 162.316 36.4485C161.258 36.4485 160.375 36.2761 159.539 35.9332C158.702 35.5884 158.015 35.0966 157.425 34.5069C156.836 33.8917 156.393 33.155 156.099 32.2949C155.803 31.4584 155.633 30.5257 155.633 29.5167C155.633 28.5078 155.805 27.5751 156.099 26.7386H156.097ZM159.341 30.9666C159.439 31.4584 159.611 31.9011 159.882 32.2695C160.126 32.6633 160.448 32.9826 160.839 33.204C161.233 33.4254 161.725 33.5488 162.314 33.5488C162.904 33.5488 163.445 33.4254 163.838 33.204C164.232 32.9826 164.551 32.6633 164.796 32.2949C165.041 31.9265 165.213 31.5092 165.311 31.0174C165.409 30.5257 165.458 30.0339 165.458 29.5186C165.458 29.0032 165.409 28.5114 165.311 28.0197C165.213 27.5279 165.041 27.0852 164.796 26.7168C164.551 26.3484 164.23 26.0527 163.838 25.8077C163.445 25.5863 162.929 25.4883 162.314 25.4883C161.699 25.4883 161.233 25.6117 160.839 25.8331C160.446 26.0545 160.126 26.3738 159.882 26.7422C159.611 27.136 159.439 27.5533 159.341 28.0451C159.243 28.5369 159.169 29.0286 159.169 29.5204C159.169 30.0121 159.243 30.5039 159.341 30.9702V30.9666Z" fill="#EFF8FF"/>
<path d="M47.971 26.276V0.762695H11.7462C10.6142 0.762695 9.52025 0.926009 8.48438 1.22542L47.9728 26.276H47.971Z" fill="white"/>
<path d="M34.2292 12.7979H31.1578V5.82985H28.6543V4.58322C29.458 4.556 30.102 4.42716 30.5882 4.19852C31.0744 3.96988 31.4535 3.7231 31.7256 3.45998C32.0431 3.14061 32.2717 2.78858 32.4078 2.39844H34.2273V12.7961L34.2292 12.7979Z" fill="#1984D2"/>
<path d="M45.8311 4.60332H38.8466L38.3224 7.59741H38.4131C38.6562 7.36151 38.9373 7.15465 39.2548 6.97319C39.5288 6.82076 39.8607 6.67922 40.2562 6.54676C40.6499 6.41429 41.1052 6.34896 41.6223 6.34896C42.4713 6.34896 43.2115 6.4778 43.841 6.73366C44.4705 6.98952 44.9893 7.33066 45.3993 7.75165C45.8093 8.17445 46.1159 8.66984 46.3209 9.23962C46.5259 9.80759 46.6275 10.4046 46.6275 11.0288C46.6275 11.7764 46.4951 12.4714 46.2284 13.1084C45.9635 13.7453 45.5844 14.2969 45.0909 14.7615C44.5975 15.226 44.0024 15.5853 43.304 15.843C42.6055 16.0988 41.8182 16.2277 40.9383 16.2277C40.0585 16.2277 39.3074 16.1242 38.5945 15.9155C37.8815 15.7069 37.2701 15.4093 36.7622 15.0209C36.2542 14.6326 35.8551 14.1645 35.5685 13.6164C35.28 13.0684 35.1367 12.4551 35.1367 11.7764H38.2081C38.2081 12.5259 38.4584 13.1084 38.9591 13.5239C39.4598 13.9394 40.1202 14.1481 40.9383 14.1481C41.7112 14.1481 42.3407 13.8814 42.8269 13.3479C43.3112 12.8144 43.5543 12.0758 43.5543 11.1341C43.5543 10.2467 43.2967 9.55718 42.7815 9.06542C42.2663 8.57367 41.537 8.32688 40.5973 8.32688C40.1111 8.32688 39.6866 8.39946 39.3238 8.54463C38.9591 8.6898 38.6489 8.86037 38.3913 9.05453C38.1028 9.26321 37.8525 9.50637 37.6402 9.78219H35.3653L36.6624 2.40039H45.8311V4.60513V4.60332Z" fill="#1984D2"/>
<path d="M48.024 31.3318V31.2883L48.0076 25.7936C47.6611 22.188 45.1594 19.477 42.5017 16.5882C41.2445 15.22 39.0077 14.2219 35.3594 12.4509C32.3117 10.972 28.0339 8.75272 24.8519 7.23752C18.7981 4.35775 12.7607 0.830165 11.6722 0.76121C11.2948 0.770283 8.45209 0.494464 5.19026 2.75909C5.18663 2.76272 5.18482 2.76634 5.18119 2.76997C2.05542 4.87854 0 8.45512 0 12.5108V36.0062C0 42.4934 5.25738 47.754 11.7448 47.754H36.2266C42.7122 47.754 47.9713 42.4952 47.9713 36.0062L48.0258 31.3336C48.0258 31.3336 48.0258 31.3336 48.0258 31.3318H48.024Z" fill="#EFF8FF"/>
<path d="M11.668 0.761719C11.668 0.761719 13.7742 0.970398 21.5587 5.42524C27.1734 8.6389 29.677 9.89642 33.4486 11.2937C41.2185 14.1734 43.5116 17.7555 43.5116 17.7555C43.5116 17.7555 42.102 15.4291 33.7914 12.8234C28.7136 11.232 13.5474 8.3522 13.5474 8.3522C13.5474 8.3522 15.7716 5.36355 14.8971 3.42918C13.9937 1.42768 11.668 0.761719 11.668 0.761719Z" fill="#1E76E2"/>
<path d="M38.8204 18.3768H33.1803L27.814 24.2543V12.5102H23.4601V15.3555C23.3186 15.1722 23.168 14.9889 23.0011 14.8111C21.4174 13.1344 19.137 12.2852 16.2217 12.2852C12.8492 12.2852 10.9316 13.7949 9.91753 15.0615C8.6567 16.6329 8.09432 18.7796 8.48436 20.5271C9.49302 25.0527 13.6909 25.7767 16.775 26.1777C19.2096 26.4953 21.5407 26.9362 21.4772 29.1083C21.4119 31.3621 18.874 31.9155 17.2068 31.9155C12.8655 31.9155 12.7186 28.7073 12.7186 28.7073H8.05078C8.11972 29.9122 8.48255 31.8466 9.96652 33.5069C11.5902 35.3252 14.0266 36.2488 17.2068 36.2488C19.6468 36.2488 21.8673 35.454 23.4601 34.0422V35.982H27.814V30.4384L29.3542 28.7527L33.7517 35.982H38.8186L32.4201 25.3938L38.8204 18.3768ZM12.8401 19.5272C12.4555 17.8469 14.1318 16.3589 16.3015 16.3589C18.2553 16.3589 20.2128 16.7963 20.9566 19.52H23.4601V23.6772C20.338 21.1114 13.5712 22.7209 12.8401 19.5254V19.5272Z" fill="#1984D2"/>
</svg>

<svg width="169" height="48" xmlns="http://www.w3.org/2000/svg" fill="none" viewBox="0 0 169 48">
  <path fill="#EFF8FF" d="M67.8 23c0-.3-.3-.5-.4-.7a3.4 3.4 0 0 0-1.7-1 5.6 5.6 0 0 0-2.2 0l-1 .3-.9.6-.8 1.1a6 6 0 0 0-.6 1.6c-.2.7-.2 1.4-.2 2.3 0 1 0 1.8.2 2.6s.5 1.4 1 2c.3.4.7.8 1.3 1 .5.4 1.1.5 1.8.5.8 0 1.4-.1 1.9-.3.5-.3.9-.6 1.1-1 .3-.3.6-.6.7-1l.3-1H72c-.2 1.1-.5 2-1 2.9a6.8 6.8 0 0 1-4 3.2c-.8.3-1.6.4-2.6.4-1.3 0-2.5-.2-3.5-.7-1-.4-1.8-1-2.5-1.8a8.5 8.5 0 0 1-1.6-3c-.4-1-.5-2.4-.5-3.8a12.2 12.2 0 0 1 1.1-5.3 7.4 7.4 0 0 1 4.9-3.7c.6-.2 1.3-.2 2-.2 1 0 1.8 0 2.5.3.8.2 1.4.4 2 .8.6.3 1 .7 1.4 1.1l1 1.4c.3.4.4.9.6 1.3l.2 1.3h-3.7l-.2-.6-.3-.6ZM81.8 23h4.5L81 28.4l5.6 7.7h-4.4l-3.8-5.6-1.4 1.4v4.2h-3.4V23H77v5l5-5Z"/>
  <path fill="#EFF8FF" d="M86.4 26.7a6 6 0 0 1 3.4-3.6c.9-.3 1.8-.5 2.8-.5 1 0 2 .2 2.8.5.9.3 1.6.8 2.1 1.4.6.6 1 1.4 1.3 2.2a8.3 8.3 0 0 1 0 5.6c-.3.9-.7 1.6-1.3 2.2a6 6 0 0 1-2 1.4c-.9.4-1.8.5-2.9.5a6.4 6.4 0 0 1-4.9-2 6 6 0 0 1-1.3-2.1 8.3 8.3 0 0 1 0-5.6Zm3.2 4.3c.1.5.3.9.6 1.3.2.4.5.7 1 .9.3.2.8.3 1.4.3.6 0 1.1 0 1.5-.3.4-.2.7-.5 1-1l.5-1.2a7.6 7.6 0 0 0 0-3l-.5-1.3a3 3 0 0 0-1-.9c-.4-.2-.9-.3-1.5-.3a3 3 0 0 0-1.5.3l-1 1-.5 1.2-.1 1.5.1 1.5ZM105.7 25.7v2.5l-.3 3.6c-.2 1-.4 1.9-.7 2.6-.3.6-.7 1.2-1.3 1.5-.5.4-1.2.5-2 .5h-1l-.7-.2v-2.9l.5.2h.6c.2 0 .5 0 .7-.2l.5-.8.3-1.8.2-2.8v-5h10.6v13.2h-3.4V25.7h-4ZM123.8 23h4.6l-5.5 5.4 5.7 7.7h-4.4l-3.9-5.6L119 32v4.2h-3.3V23h3.3v5l5-5Z"/>
  <path fill="#EFF8FF" d="M128.4 26.7a6 6 0 0 1 3.5-3.6c.8-.3 1.7-.5 2.7-.5 1 0 2 .2 2.9.5.8.3 1.5.8 2 1.4.6.6 1 1.4 1.4 2.2.3.9.4 1.8.4 2.8 0 1-.1 2-.4 2.8-.3.9-.8 1.6-1.4 2.2a6 6 0 0 1-2 1.4c-.9.4-1.8.5-2.9.5-1 0-2-.1-2.7-.5-.9-.3-1.6-.8-2.2-1.4-.6-.6-1-1.3-1.3-2.2a8.3 8.3 0 0 1 0-5.6Zm3.3 4.3c0 .5.2.9.5 1.3.2.4.6.7 1 .9.3.2.8.3 1.4.3.6 0 1.2 0 1.6-.3a3.5 3.5 0 0 0 1.5-2.2 7.6 7.6 0 0 0 0-3c-.2-.5-.3-1-.6-1.3a3 3 0 0 0-1-.9c-.3-.2-.9-.3-1.5-.3a3 3 0 0 0-1.4.3c-.4.3-.8.6-1 1-.3.3-.4.8-.5 1.2l-.2 1.5c0 .5 0 1 .2 1.5ZM151.4 23.1l1.5.6c.4.2.7.6 1 1 .2.5.4 1 .4 1.7a3 3 0 0 1-.5 1.8 3 3 0 0 1-1 .9c.6.2 1 .5 1.4 1 .3.6.5 1.2.5 1.9 0 .6 0 1.2-.3 1.6-.2.5-.5 1-.9 1.3a4 4 0 0 1-1.4.9c-.6.2-1.2.3-1.9.3H143V23h6.8l1.7.1Zm-1.5 5 .6-.4.3-.4v-1.1a1 1 0 0 0-.3-.4l-.6-.3-.9-.1h-2.7V28h3.6Zm.2 5.4.7-.4c.1-.2.3-.3.3-.5v-1.4a1 1 0 0 0-.4-.5l-.7-.2-1.1-.1h-2.6v3.2h2.6l1.2-.1ZM156.1 26.7a6 6 0 0 1 3.4-3.6c.9-.3 1.8-.5 2.8-.5 1 0 2 .2 2.8.5.9.3 1.6.8 2.1 1.4.6.6 1 1.4 1.4 2.2.3.9.4 1.8.4 2.8a6.7 6.7 0 0 1-1.8 5 6 6 0 0 1-2 1.4c-.9.4-1.8.5-2.9.5a6.4 6.4 0 0 1-4.9-2 6 6 0 0 1-1.3-2.1 8.3 8.3 0 0 1 0-5.6Zm3.2 4.3c.1.5.3.9.6 1.3.2.4.5.7 1 .9.3.2.8.3 1.4.3.6 0 1.1 0 1.5-.3.4-.2.8-.5 1-1l.5-1.2a7.6 7.6 0 0 0 0-3c0-.5-.3-1-.5-1.3a3 3 0 0 0-1-.9c-.4-.2-.9-.3-1.5-.3a3 3 0 0 0-1.5.3l-1 1-.5 1.2-.1 1.5.1 1.5Z"/>
  <path fill="#fff" d="M48 26.3V.8H11.7c-1 0-2.2.1-3.2.4l39.5 25Z"/>
  <path fill="#1984D2" d="M34.2 12.8h-3v-7h-2.5V4.6a5 5 0 0 0 1.9-.4l1.1-.7c.3-.4.6-.7.7-1.1h1.8v10.4ZM45.8 4.6h-7l-.5 3h.1l.9-.6a6 6 0 0 1 1-.5l1.3-.2c.9 0 1.6.2 2.2.4.7.3 1.2.6 1.6 1l1 1.5.2 1.8c0 .8-.1 1.5-.4 2.1a4.7 4.7 0 0 1-2.9 2.7 8.2 8.2 0 0 1-4.7 0c-.7 0-1.3-.4-1.8-.8s-1-.8-1.2-1.4c-.3-.5-.5-1.1-.5-1.8h3.1c0 .7.3 1.3.8 1.7a3 3 0 0 0 2 .6c.7 0 1.3-.2 1.8-.8.5-.5.8-1.2.8-2.2 0-.9-.3-1.5-.8-2a3 3 0 0 0-2.2-.8 3.4 3.4 0 0 0-2.2.8l-.8.7h-2.2l1.3-7.4h9.1v2.2Z"/>
  <path fill="#EFF8FF" d="M48 31.3v-5.5c-.3-3.6-2.8-6.3-5.5-9.2-1.3-1.4-3.5-2.4-7.1-4.1L24.9 7.2C18.8 4.4 12.8.8 11.7.8c-.4 0-3.2-.3-6.5 2A11.7 11.7 0 0 0 0 12.5V36c0 6.5 5.3 11.8 11.7 11.8h24.5C42.7 47.8 48 42.5 48 36v-4.7Z"/>
  <path fill="#1E76E2" d="M11.7.8s2 .2 9.9 4.6c5.6 3.2 8 4.5 11.8 5.9 7.8 2.9 10.1 6.5 10.1 6.5s-1.4-2.4-9.7-5c-5-1.6-20.3-4.4-20.3-4.4s2.3-3 1.4-5c-1-2-3.2-2.6-3.2-2.6Z"/>
  <path fill="#1984D2" d="M38.8 18.4h-5.6l-5.4 5.9V12.5h-4.3v2.9l-.5-.6a9 9 0 0 0-6.8-2.5A7.7 7.7 0 0 0 10 15a6.8 6.8 0 0 0-1.4 5.4c1 4.6 5.2 5.3 8.3 5.7 2.4.3 4.7.7 4.7 3 0 2.2-2.6 2.7-4.3 2.7-4.3 0-4.5-3.2-4.5-3.2H8.1c0 1.2.4 3.1 1.9 4.8 1.6 1.8 4 2.7 7.2 2.7 2.4 0 4.7-.7 6.3-2.2v2h4.3v-5.6l1.6-1.6 4.4 7.2h5l-6.4-10.6 6.4-7Zm-26 1.1c-.3-1.7 1.3-3.1 3.5-3.1 2 0 4 .4 4.7 3.1h2.5v4.2c-3.2-2.6-10-1-10.7-4.2Z"/>
</svg>
